packages/vibrant-icons/assets/icons/SlowMotion/Fill.svg

<svg width="24" height="24" viewBox="0 0 24 24" fill="none" xmlns="http://www.w3.org/2000/svg">
<path d="M16.6852 11.9997L9.40021 16.6832V7.31672L16.6852 12.0002V11.9997ZM1.94971 10.9997H4.16271C4.33871 9.59772 4.88421 8.28072 5.75121 7.16472L4.18971 5.60322C2.95871 7.10372 2.15071 8.96372 1.94971 10.9997ZM5.60371 4.18922L7.16521 5.75072C8.28121 4.88372 9.59771 4.33822 11.0002 4.16222V1.94922C8.96421 2.15022 7.10421 2.95822 5.60371 4.18922ZM5.60371 19.8102C7.10421 21.0412 8.96421 21.8492 11.0002 22.0502V19.8372C9.59821 19.6612 8.28121 19.1157 7.16521 18.2487L5.60371 19.8102ZM13.0002 1.94922V4.16222C14.7317 4.37972 16.3327 5.15972 17.5862 6.41372C19.0787 7.90522 19.9002 9.88922 19.9002 11.9997C19.9002 14.1102 19.0787 16.0937 17.5862 17.5857C16.3327 18.8392 14.7317 19.6197 13.0002 19.8372V22.0502C18.1017 21.5467 22.1002 17.2312 22.1002 11.9997C22.1002 6.76822 18.1017 2.45272 13.0002 1.94922ZM4.18971 18.3962L5.75121 16.8347C4.88421 15.7187 4.33871 14.4022 4.16271 12.9997H1.94971C2.15071 15.0357 2.95871 16.8957 4.18971 18.3962Z" fill="black"/>
</svg>

<svg xmlns="http://www.w3.org/2000/svg" width="24" height="24" fill="none"><path fill="#000" d="M16.685 12 9.4 16.683V7.317zM1.95 11h2.213A7.8 7.8 0 0 1 5.75 7.165L4.19 5.603A10.05 10.05 0 0 0 1.95 11m3.654-6.81 1.561 1.56A7.8 7.8 0 0 1 11 4.163V1.95a10.05 10.05 0 0 0-5.396 2.24m0 15.62A10.05 10.05 0 0 0 11 22.05v-2.213a7.8 7.8 0 0 1-3.835-1.588zM13 1.95v2.212a7.84 7.84 0 0 1 4.586 2.252A7.85 7.85 0 0 1 19.9 12c0 2.11-.821 4.094-2.314 5.586A7.84 7.84 0 0 1 13 19.837v2.213c5.102-.503 9.1-4.819 9.1-10.05S18.102 2.453 13 1.95M4.19 18.395l1.561-1.561A7.8 7.8 0 0 1 4.163 13H1.95a10.05 10.05 0 0 0 2.24 5.396"/></svg>
